TH1/twoscales.svg

<svg xmlns="http://www.w3.org/2000/svg" viewBox="0 0 1200 800" preserveAspectRatio="none" width="1200" height="800">
 <path d="M0,0H1200V800H0Z" style="fill: white;"></path>
 <g>
  <g transform="translate(120,80)">
   <path d="M0,0H960V640H0Z" style="fill: white; stroke: black; stroke-width: 1;"></path>
   <svg x="0" y="0" overflow="hidden" width="960" height="640" viewBox="0 0 960 640">
    <g>
     <path d="M0,635h10v-2h9v5h10v-10h19v-4h10v-12h9v19h10v-14h9v-12h10v10h10v4h9v-14h10v-35h9v10h10v-14h10v-5h9v-16h10v35h9v-33h10v-25h10v-12h9v-11h10v-26h9v-25h10v23h10v-60h9v37h10v-75h9v35h10v-28h10v-37h9v-14h10v-11h9v-37h10v-12h10v-72h9v7h10v21h9v-32h10v-3h10v-23h9v-56h10v-20h9v-17h10v98h10v-67h9v13h10v-48h9v4h10v-20h10v-24h9v116h10v-44h9v-14h10v19h10v51h9v-21h10v9h9v33h10v18h19v26h19v-14h10v39h10v63h9v2h10v19h9v62h10v-92h10v92h9v35h10v16h9v12h10v42h10v-7h9v27h10v5h9v42h10v-51h10v39h9v16h10v-23h9v30h10v-4h10v28h9v-17h19v17h10v18h10v-2h9v-5h10v-2h9v21h10v4h10v-7h9v3h10v2h9v-2h10" style="stroke-linejoin: miter; stroke: #00009a; stroke-width: 1; fill: none;"></path>
    </g>
    <g>
     <path d="M0,640h10M5,640v0M10,640h10M15,640v0M19,640h10M24,639v1M29,639h10M34,639v1M38,639h10M43,639v0M48,639h10M53,638v1M58,638h10M63,638v0M67,638h10M72,637v1M77,637h10M82,637v0M86,636h10M91,636v1M96,635h10M101,635v1M106,635h10M111,634v1M115,634h10M120,633v2M125,632h10M130,632v1M134,631h10M139,630v1M144,629h10M149,628v2M154,627h10M159,626v2M163,624h10M168,623v2M173,623h10M178,622v2M182,620h10M187,619v2M192,617h10M197,616v2M202,614h10M207,612v3M211,610h10M216,609v2M221,606h10M226,604v3M230,601h10M235,599v3M240,596h10M245,595v3M250,590h10M255,588v4M259,585h10M264,583v4M269,578h10M274,576v4M278,572h10M283,570v4M288,565h10M293,563v4M298,558h10M303,555v5M307,550h10M312,547v5M317,541h10M322,539v5M326,532h10M331,529v5M336,522h10M341,519v6M346,510h10M351,508v5M355,499h10M360,496v6M365,488h10M370,485v6M374,477h10M379,473v7M384,465h10M389,462v6M394,452h10M399,449v7M403,439h10M408,435v7M413,424h10M418,421v7M422,410h10M427,406v7M432,397h10M437,394v7M442,383h10M447,379v8M451,370h10M456,366v8M461,355h10M466,351v8M470,340h10M475,336v8M480,325h10M485,320v9M490,309h10M495,304v9M499,296h10M504,291v10M509,282h10M514,277v10M518,267h10M523,263v9M528,254h10M533,249v9M538,241h10M543,236v10M547,228h10M552,223v10M557,215h10M562,210v10M566,203h10M571,198v10M576,191h10M581,186v11M586,180h10M591,175v10M595,169h10M600,164v10M605,158h10M610,153v10M614,147h10M619,141v11M624,137h10M629,131v11M634,128h10M639,122v11M643,119h10M648,114v11M653,111h10M658,106v11M662,105h10M667,99v12M672,96h10M677,90v12M682,90h10M687,84v11M691,84h10M696,78v12M701,79h10M706,73v12M710,74h10M715,68v12M720,71h10M725,65v11M730,67h10M735,61v12M739,64h10M744,58v11M749,61h10M754,55v11M758,59h10M763,53v12M768,55h10M773,49v12M778,53h10M783,47v12M787,51h10M792,45v12M797,49h10M802,43v12M806,47h10M811,41v12M816,45h10M821,39v12M826,44h10M831,38v12M835,43h10M840,37v12M845,42h10M850,36v12M854,41h10M859,34v13M864,40h10M869,34v12M874,39h10M879,33v12M883,39h10M888,33v12M893,38h10M898,32v12M902,38h10M907,32v12M912,37h10M917,31v13M922,37h10M927,31v12M931,37h10M936,31v12M941,37h10M946,31v12M950,37h10M955,30v13" style="stroke: red; stroke-width: 1;"></path>
    </g>
   </svg>
   <g>
    <g transform="translate(0,640)">
     <path d="M0,0h960M0,-24v24m32,-12v12m32,-12v12m32,-12v12m32,-12v12m32,-24v24m32,-12v12m32,-12v12m32,-12v12m32,-12v12m32,-24v24m32,-12v12m32,-12v12m32,-12v12m32,-12v12m32,-24v24m32,-12v12m32,-12v12m32,-12v12m32,-12v12m32,-24v24m32,-12v12m32,-12v12m32,-12v12m32,-12v12m32,-24v24m32,-12v12m32,-12v12m32,-12v12m32,-12v12m32,-24v24" style="stroke: black; stroke-width: 1;"></path>
     <g font-family="Arial" font-size="28" space="preserve" fill="black" text-anchor="middle">
      <text dy=".8em" transform="translate(0,6)">
       -3
      </text>
      <text dy=".8em" transform="translate(160,6)">
       -2
      </text>
      <text dy=".8em" transform="translate(320,6)">
       -1
      </text>
      <text dy=".8em" transform="translate(480,6)">
       0
      </text>
      <text dy=".8em" transform="translate(640,6)">
       1
      </text>
      <text dy=".8em" transform="translate(800,6)">
       2
      </text>
      <text dy=".8em" transform="translate(960,6)">
       3
      </text>
     </g>
    </g>
    <g>
     <path d="M0,0v640M36,640h-36m18,-23h-18m18,-23h-18m18,-24h-18m18,-23h-18m36,-23h-36m18,-23h-18m18,-23h-18m18,-23h-18m18,-24h-18m36,-23h-36m18,-23h-18m18,-23h-18m18,-23h-18m18,-24h-18m36,-23h-36m18,-23h-18m18,-23h-18m18,-23h-18m18,-23h-18m36,-24h-36m18,-23h-18m18,-23h-18m18,-23h-18m18,-23h-18m36,-24h-36m18,-23h-18m18,-23h-18" style="stroke: black; stroke-width: 1;"></path>
     <g font-family="Arial" font-size="28" space="preserve" fill="black" text-anchor="end">
      <text dy=".4em" transform="translate(-4,640)">
       0
      </text>
      <text dy=".4em" transform="translate(-4,524)">
       50
      </text>
      <text dy=".4em" transform="translate(-4,408)">
       100
      </text>
      <text dy=".4em" transform="translate(-4,292)">
       150
      </text>
      <text dy=".4em" transform="translate(-4,176)">
       200
      </text>
      <text dy=".4em" transform="translate(-4,60)">
       250
      </text>
     </g>
    </g>
    <g transform="translate(960)">
     <path d="M0,0v640M0,640h-36m36,-24h-18m18,-24h-18m18,-24h-18m18,-24h-18m18,-24h-36m36,-24h-18m18,-24h-18m18,-24h-18m18,-24h-18m18,-24h-36m36,-24h-18m18,-24h-18m18,-25h-18m18,-24h-18m18,-24h-36m36,-24h-18m18,-24h-18m18,-24h-18m18,-24h-18m18,-24h-36m36,-24h-18m18,-24h-18m18,-24h-18m18,-24h-18m18,-24h-36m36,-24h-18" style="stroke: red; stroke-width: 1;"></path>
     <g font-family="Arial" font-size="28" space="preserve" fill="red" text-anchor="start">
      <text dy=".4em" transform="translate(4,640)">
       0
      </text>
      <text dy=".4em" transform="translate(4,520)">
       50
      </text>
      <text dy=".4em" transform="translate(4,400)">
       100
      </text>
      <text dy=".4em" transform="translate(4,279)">
       150
      </text>
      <text dy=".4em" transform="translate(4,159)">
       200
      </text>
      <text dy=".4em" transform="translate(4,39)">
       250
      </text>
     </g>
    </g>
   </g>
  </g>
  <g transform="translate(120,4)" font-family="Arial" font-size="40" space="preserve">
   <text fill="black" text-anchor="middle" dy=".8em" transform="translate(480)">
    my histogram
   </text>
  </g>
 </g>
</svg>

<svg xmlns="http://www.w3.org/2000/svg" viewBox="0 0 1200 800" preserveAspectRatio="none" width="1200" height="800">
 <path d="M0,0H1200V800H0Z" style="fill: white;"></path>
 <g>
  <g transform="translate(120,80)">
   <path d="M0,0H960V640H0Z" style="fill: white; stroke: black; stroke-width: 1;"></path>
   <svg x="0" y="0" overflow="hidden" width="960" height="640" viewBox="0 0 960 640">
    <g>
     <path d="M0,635h10v-2h9v5h10v-10h19v-4h10v-12h9v19h10v-14h9v-12h10v10h10v4h9v-14h10v-35h9v10h10v-14h10v-5h9v-16h10v35h9v-33h10v-25h10v-12h9v-11h10v-26h9v-25h10v23h10v-60h9v37h10v-75h9v35h10v-28h10v-37h9v-14h10v-11h9v-37h10v-12h10v-72h9v7h10v21h9v-32h10v-3h10v-23h9v-56h10v-20h9v-17h10v98h10v-67h9v13h10v-48h9v4h10v-20h10v-24h9v116h10v-44h9v-14h10v19h10v51h9v-21h10v9h9v33h10v18h19v26h19v-14h10v39h10v63h9v2h10v19h9v62h10v-92h10v92h9v35h10v16h9v12h10v42h10v-7h9v27h10v5h9v42h10v-51h10v39h9v16h10v-23h9v30h10v-4h10v28h9v-17h19v17h10v18h10v-2h9v-5h10v-2h9v21h10v4h10v-7h9v3h10v2h9v-2h10" style="stroke-linejoin: miter; stroke: #00009a; stroke-width: 1; fill: none;"></path>
    </g>
    <g>
     <path d="M0,640h10M5,640v0M10,640h10M15,640v0M19,640h10M24,639v1M29,639h10M34,639v1M38,639h10M43,639v0M48,639h10M53,638v1M58,638h10M63,638v0M67,638h10M72,637v1M77,637h10M82,637v0M86,636h10M91,636v1M96,635h10M101,635v1M106,635h10M111,634v1M115,634h10M120,633v2M125,632h10M130,632v1M134,631h10M139,630v1M144,629h10M149,628v2M154,627h10M159,626v2M163,624h10M168,623v2M173,623h10M178,622v2M182,620h10M187,619v2M192,617h10M197,616v2M202,614h10M207,612v3M211,610h10M216,609v2M221,606h10M226,604v3M230,601h10M235,599v3M240,596h10M245,595v3M250,590h10M255,588v4M259,585h10M264,583v4M269,578h10M274,576v4M278,572h10M283,570v4M288,565h10M293,563v4M298,558h10M303,555v5M307,550h10M312,547v5M317,541h10M322,539v5M326,532h10M331,529v5M336,522h10M341,519v6M346,510h10M351,508v5M355,499h10M360,496v6M365,488h10M370,485v6M374,477h10M379,473v7M384,465h10M389,462v6M394,452h10M399,449v7M403,439h10M408,435v7M413,424h10M418,421v7M422,410h10M427,406v7M432,397h10M437,394v7M442,383h10M447,379v8M451,370h10M456,366v8M461,355h10M466,351v8M470,340h10M475,336v8M480,325h10M485,320v9M490,309h10M495,304v9M499,296h10M504,291v10M509,282h10M514,277v10M518,267h10M523,263v9M528,254h10M533,249v9M538,241h10M543,236v10M547,228h10M552,223v10M557,215h10M562,210v10M566,203h10M571,198v10M576,191h10M581,186v11M586,180h10M591,175v10M595,169h10M600,164v10M605,158h10M610,153v10M614,147h10M619,141v11M624,137h10M629,131v11M634,128h10M639,122v11M643,119h10M648,114v11M653,111h10M658,106v11M662,105h10M667,99v12M672,96h10M677,90v12M682,90h10M687,84v11M691,84h10M696,78v12M701,79h10M706,73v12M710,74h10M715,68v12M720,71h10M725,65v11M730,67h10M735,61v12M739,64h10M744,58v11M749,61h10M754,55v11M758,59h10M763,53v12M768,55h10M773,49v12M778,53h10M783,47v12M787,51h10M792,45v12M797,49h10M802,43v12M806,47h10M811,41v12M816,45h10M821,39v12M826,44h10M831,38v12M835,43h10M840,37v12M845,42h10M850,36v12M854,41h10M859,34v13M864,40h10M869,34v12M874,39h10M879,33v12M883,39h10M888,33v12M893,38h10M898,32v12M902,38h10M907,32v12M912,37h10M917,31v13M922,37h10M927,31v12M931,37h10M936,31v12M941,37h10M946,31v12M950,37h10M955,30v13" style="stroke: red; stroke-width: 1;"></path>
    </g>
   </svg>
   <g>
    <g transform="translate(0,640)">
     <path d="M0,0h960M0,-24V0M32,-12V0M64,-12V0M96,-12V0M128,-12V0M160,-24V0M192,-12V0M224,-12V0M256,-12V0M288,-12V0M320,-24V0M352,-12V0M384,-12V0M416,-12V0M448,-12V0M480,-24V0M512,-12V0M544,-12V0M576,-12V0M608,-12V0M640,-24V0M672,-12V0M704,-12V0M736,-12V0M768,-12V0M800,-24V0M832,-12V0M864,-12V0M896,-12V0M928,-12V0M960,-24V0" style="stroke: black; stroke-width: 1;"></path>
     <g font-family="Arial" font-size="28" space="preserve" fill="black" text-anchor="middle">
      <text dy=".8em" transform="translate(0,6)">
       -3
      </text>
      <text dy=".8em" transform="translate(160,6)">
       -2
      </text>
      <text dy=".8em" transform="translate(320,6)">
       -1
      </text>
      <text dy=".8em" transform="translate(480,6)">
       0
      </text>
      <text dy=".8em" transform="translate(640,6)">
       1
      </text>
      <text dy=".8em" transform="translate(800,6)">
       2
      </text>
      <text dy=".8em" transform="translate(960,6)">
       3
      </text>
     </g>
    </g>
    <g>
     <path d="M0,0v640M36,640H0M18,617H0M18,594H0M18,570H0M18,547H0M36,524H0M18,501H0M18,478H0M18,455H0M18,431H0M36,408H0M18,385H0M18,362H0M18,339H0M18,315H0M36,292H0M18,269H0M18,246H0M18,223H0M18,200H0M36,176H0M18,153H0M18,130H0M18,107H0M18,84H0M36,60H0M18,37H0M18,14H0" style="stroke: black; stroke-width: 1;"></path>
     <g font-family="Arial" font-size="28" space="preserve" fill="black" text-anchor="end">
      <text dy=".4em" transform="translate(-4,640)">
       0
      </text>
      <text dy=".4em" transform="translate(-4,524)">
       50
      </text>
      <text dy=".4em" transform="translate(-4,408)">
       100
      </text>
      <text dy=".4em" transform="translate(-4,292)">
       150
      </text>
      <text dy=".4em" transform="translate(-4,176)">
       200
      </text>
      <text dy=".4em" transform="translate(-4,60)">
       250
      </text>
     </g>
    </g>
    <g transform="translate(960)">
     <path d="M0,0v640M0,640H-36M0,616H-18M0,592H-18M0,568H-18M0,544H-18M0,520H-36M0,496H-18M0,472H-18M0,448H-18M0,424H-18M0,400H-36M0,376H-18M0,352H-18M0,327H-18M0,303H-18M0,279H-36M0,255H-18M0,231H-18M0,207H-18M0,183H-18M0,159H-36M0,135H-18M0,111H-18M0,87H-18M0,63H-18M0,39H-36M0,15H-18" style="stroke: red; stroke-width: 1;"></path>
     <g font-family="Arial" font-size="28" space="preserve" fill="red" text-anchor="start">
      <text dy=".4em" transform="translate(4,640)">
       0
      </text>
      <text dy=".4em" transform="translate(4,520)">
       50
      </text>
      <text dy=".4em" transform="translate(4,400)">
       100
      </text>
      <text dy=".4em" transform="translate(4,279)">
       150
      </text>
      <text dy=".4em" transform="translate(4,159)">
       200
      </text>
      <text dy=".4em" transform="translate(4,39)">
       250
      </text>
     </g>
    </g>
   </g>
  </g>
  <g transform="translate(120,4)" font-family="Arial" font-size="40" space="preserve">
   <text fill="black" text-anchor="middle" dy=".8em" transform="translate(480)">
    my histogram
   </text>
  </g>
 </g>
</svg>
